X: 1791
U: Q=!diminuendo(!
U: q=!diminuendo)!
U: P=!crescendo(!
U: p=!crescendo)!
M: 3/4
L: 1/8
K: C
V: 1
|:"PRIMO"\
!p!cG e3 d | ce g3 d | (e/d/^c/d/) gfed | c>e G3 z |\
cG e3 d | ce g3 b | bb/b/ ba ^fg | e4 z2 |
!f!cG e3 d | ce g3 e | (e/d/^c/d/) gfed | c>e G3 z |\
cG e3 d | ce g3 e | aa/g/ .f(f/e/) (d/c/).B/.g/ | c(e/d/) (d2c)z |
!p!e>d dgfd | d>c cgec | c>B gfed | .c(c/e/) G4 |\
e>d dgfB | (c/B/c/).Pd/ (e/d/e/).f/ (g/^f/g/).^g/p !ff!| a.=g.=f.e (d/c/).B/.d/ | .c(e/d/) (d2c)z "_FINE"H:|
[K:F]|:"^TRIO"\
"_DOLCE"c3 _BAf | c4 (AF) | (EG) "^>"d3 c | (B4 A2) |\
c3 BAf | d3 g^fg | a3 =feg | (g4 "_D.C. AL FINE"f)z :|
V: 2
|:"SECONDO"
!p!EG CG EG | E3!trem1!G3 | FG FG FG | E3!trem1!G3 |\
EG CG EG | E3!trem1!G3 | EG ^DB AB | G^FE2z2 |
!f!EG CG EG | E3!trem1!G3 | FG FG FG | E3!trem1!G3 |\
EG CG EG | E3!trem1!G3 | .F(F/G/) .A(D/E/) FD | .E(G/F/) (F2E)z |
[K:F]|:"^TRIO"\
"_DOLCE".A(A/G/) F2 zA | .A(F/G/) .A.G F2 | (CE) "_>"B3 A | (G4 F2) |\
.A(A/G/) F2 zA | .B(G/A/) BBAB | c3 AGB | (B4 "_D.C. AL FINE"A)z :|

